X:1
T:Ellen Alleyne
C:Jo Anne Rocke 11/2/95
M:3/4
K:F
P:A
AGW||"F"F4f2|"Bb"f3ed2|"Am"c4f2|"Dm"F4G2|"Gm"A3cA2|"C7"G2F2D2|"F"(C6|"C7"C2)G2E2|
"F"F3BA2|"Gm"G2A2B2|"Am"c2A2G2|"Bb"F2B2F2|"F"A(cc4)|"Gm"B(cc4)|"C7"(c6|c2)A2G2|
"F"F4f2|"Bb"f3ed2|"Am"c4f2|"Dm"F2G2A2|"Eb"B4B2|"Cm"B2d4|"F"(c6|"C7"c2)A2G2|
"F"F3BA2|"Gm"G2A2B2|"Am"c2d2e2|"Bb"{e}f3ed2|"Gm"c/(f/f2)A2|"C7"G2c4|"F"(F6|"A7"F2)||
P:B
|:F2E2|"Dm"D4A2|"Bb"A3GA2|"Dm"F2E2D2|"Gm"B6|"A7"A3Bd2|^c2d2e2|"Bb"f2d3f|"C7"e4c2|
|1"Dm"d3AA2|"Gm"A2G2A2|"A7"B2A2E2|"Dm"F2G2A2|"Bb"B2c2d2|"C"e4c2|"Dm"A6|"Bb"F6:|
|2"Dm"d3AA2|"Gm"A2G2A2|"A7"B2A2E2|"Bb"F4G2|"Gm"A2F4|"A7"G2E2F2|"Bb"D6|"C7"z2A2G2||
W: Play ABAB or ABABA
